X: 12434
T: Farewell Rory
R: reel
M: 4/4
K: Gmajor
G3A BAGA|Bded gedB|gedB c3B|BAGB AGFA|
G3A BAGA|Bded gede|gedB c3B|BAGB AGFA|
G3A BAGA|Bded gedB|G2AG cGBG|BAGB AGFA|
G3A BAGA|Bded gedB|GABA cBAG|FGAF GABd|
|:g3a bgag|fdde fdcA|GABA cBAg|fgaf gfed|
g3a bgag|fdde fdcA|GABA cBAG|1 FGAF GABd:|2 FGAF GdBA||

